coffe/ig.svg

<svg width="48" height="48" viewBox="0 0 48 48" fill="none" xmlns="http://www.w3.org/2000/svg">
<path fill-rule="evenodd" clip-rule="evenodd" d="M24 12C17.373 12 12 17.373 12 24C12 30.627 17.373 36 24 36C30.627 36 36 30.627 36 24C36 17.373 30.627 12 24 12ZM16.5 24C16.5 28.134 19.866 31.5 24 31.5C28.134 31.5 31.5 28.134 31.5 24C31.5 19.863 28.134 16.5 24 16.5C19.866 16.5 16.5 19.863 16.5 24Z" fill="#A07250"/>
<path d="M38.499 11.1C38.499 11.9831 37.7831 12.699 36.9 12.699C36.0169 12.699 35.301 11.9831 35.301 11.1C35.301 10.2169 36.0169 9.501 36.9 9.501C37.7831 9.501 38.499 10.2169 38.499 11.1Z" fill="#A07250"/>
<path fill-rule="evenodd" clip-rule="evenodd" d="M33 0H15C6.717 0 0 6.717 0 15V33C0 41.283 6.717 48 15 48H33C41.283 48 48 41.283 48 33V15C48 6.717 41.283 0 33 0ZM33 43.5C38.79 43.5 43.5 38.79 43.5 33V15C43.5 9.21 38.79 4.5 33 4.5H15C9.21 4.5 4.5 9.21 4.5 15V33C4.5 38.79 9.21 43.5 15 43.5H33Z" fill="#A07250"/>
<path fill-rule="evenodd" clip-rule="evenodd" d="M43.5 33C43.5 38.79 38.79 43.5 33 43.5H15C9.21 43.5 4.5 38.79 4.5 33V15C4.5 9.21 9.21 4.5 15 4.5H33C38.79 4.5 43.5 9.21 43.5 15V33ZM12 24C12 17.373 17.373 12 24 12C30.627 12 36 17.373 36 24C36 30.627 30.627 36 24 36C17.373 36 12 30.627 12 24ZM36.9 12.699C37.7831 12.699 38.499 11.9831 38.499 11.1C38.499 10.2169 37.7831 9.501 36.9 9.501C36.0169 9.501 35.301 10.2169 35.301 11.1C35.301 11.9831 36.0169 12.699 36.9 12.699Z" fill="#E3C4AD"/>
<path d="M24 31.5C19.866 31.5 16.5 28.134 16.5 24C16.5 19.863 19.866 16.5 24 16.5C28.134 16.5 31.5 19.863 31.5 24C31.5 28.134 28.134 31.5 24 31.5Z" fill="#E3C4AD"/>
</svg>

<svg xmlns="http://www.w3.org/2000/svg" width="48" height="48" fill="none"><path fill="#A07250" fill-rule="evenodd" d="M24 12a12 12 0 1 0 0 24 12 12 0 0 0 0-24Zm-7.5 12a7.51 7.51 0 0 0 15 0 7.5 7.5 0 0 0-15 0Z" clip-rule="evenodd"/><path fill="#A07250" d="M38.5 11.1a1.6 1.6 0 1 1-3.2 0 1.6 1.6 0 0 1 3.2 0Z"/><path fill="#A07250" fill-rule="evenodd" d="M33 0H15A15 15 0 0 0 0 15v18a15 15 0 0 0 15 15h18a15 15 0 0 0 15-15V15A15 15 0 0 0 33 0Zm0 43.5c5.79 0 10.5-4.71 10.5-10.5V15c0-5.79-4.71-10.5-10.5-10.5H15C9.21 4.5 4.5 9.21 4.5 15v18c0 5.79 4.71 10.5 10.5 10.5h18Z" clip-rule="evenodd"/><path fill="#E3C4AD" fill-rule="evenodd" d="M43.5 33c0 5.79-4.71 10.5-10.5 10.5H15C9.21 43.5 4.5 38.79 4.5 33V15C4.5 9.21 9.21 4.5 15 4.5h18c5.79 0 10.5 4.71 10.5 10.5v18ZM12 24a12 12 0 1 1 24 0 12 12 0 0 1-24 0Zm24.9-11.3a1.6 1.6 0 1 0 0-3.2 1.6 1.6 0 0 0 0 3.2Z" clip-rule="evenodd"/><path fill="#E3C4AD" d="M24 31.5a7.51 7.51 0 0 1 0-15 7.5 7.5 0 0 1 0 15Z"/></svg>
